assets/images/iconHumidity.svg

<svg fill="none" height="38" viewBox="0 0 31 38" width="31" xmlns="http://www.w3.org/2000/svg" xmlns:xlink="http://www.w3.org/1999/xlink"><filter id="a" color-interpolation-filters="sRGB" filterUnits="userSpaceOnUse" height="38" width="38" x="-3.5" y="0"><feFlood flood-opacity="0" result="BackgroundImageFix"/><feColorMatrix in="SourceAlpha" result="hardAlpha" type="matrix" values="0 0 0 0 0 0 0 0 0 0 0 0 0 0 0 0 0 0 127 0"/><feOffset dy="4"/><feGaussianBlur stdDeviation="2"/><feComposite in2="hardAlpha" operator="out"/><feColorMatrix type="matrix" values="0 0 0 0 0 0 0 0 0 0 0 0 0 0 0 0 0 0 0.25 0"/><feBlend in2="BackgroundImageFix" mode="normal" result="effect1_dropShadow_2275_1575"/><feBlend in="SourceGraphic" in2="effect1_dropShadow_2275_1575" mode="normal" result="shape"/></filter><clipPath id="b"><path d="m.5 0h30v30h-30z"/></clipPath><g clip-path="url(#b)" fill="#fff" filter="url(#a)"><path d="m16.5125.516875c-.235-.324375-.6119-.516875-1.0125-.516875s-.7775.1925-1.0125.516875c-.9837 1.358745-9.6125 13.431825-9.6125 18.858125 0 5.8587 4.76625 10.625 10.625 10.625 5.8588 0 10.625-4.7663 10.625-10.625 0-5.4263-8.6287-17.49938-9.6125-18.858125zm-1.0125 26.983125c-4.48 0-8.125-3.645-8.125-8.125 0-3.4663 5.1769-11.685 8.125-15.95625 2.9481 4.27125 8.125 12.48995 8.125 15.95625 0 4.48-3.645 8.125-8.125 8.125z"/><path d="m15.5 23.125c-2.0681 0-3.75-1.6819-3.75-3.75 0-.69-.56-1.25-1.25-1.25s-1.25.56-1.25 1.25c0 3.4463 2.8038 6.25 6.25 6.25.69 0 1.25-.56 1.25-1.25s-.56-1.25-1.25-1.25z"/></g></svg>

<svg width="31" height="38" viewBox="0 0 31 38" fill="none" xmlns="http://www.w3.org/2000/svg">
<g clip-path="url(#clip0_2275_1575)" filter="url(#filter0_d_2275_1575)">
<path d="M16.5125 0.516875C16.2775 0.1925 15.9006 0 15.5 0C15.0994 0 14.7225 0.1925 14.4875 0.516875C13.5038 1.87562 4.875 13.9487 4.875 19.375C4.875 25.2337 9.64125 30 15.5 30C21.3588 30 26.125 25.2337 26.125 19.375C26.125 13.9487 17.4963 1.87562 16.5125 0.516875ZM15.5 27.5C11.02 27.5 7.375 23.855 7.375 19.375C7.375 15.9087 12.5519 7.69 15.5 3.41875C18.4481 7.69 23.625 15.9087 23.625 19.375C23.625 23.855 19.98 27.5 15.5 27.5Z" fill="white"/>
<path d="M15.5 23.125C13.4319 23.125 11.75 21.4431 11.75 19.375C11.75 18.685 11.19 18.125 10.5 18.125C9.81 18.125 9.25 18.685 9.25 19.375C9.25 22.8213 12.0538 25.625 15.5 25.625C16.19 25.625 16.75 25.065 16.75 24.375C16.75 23.685 16.19 23.125 15.5 23.125Z" fill="white"/>
</g>
<defs>
<filter id="filter0_d_2275_1575" x="-3.5" y="0" width="38" height="38" filterUnits="userSpaceOnUse" color-interpolation-filters="sRGB">
<feFlood flood-opacity="0" result="BackgroundImageFix"/>
<feColorMatrix in="SourceAlpha" type="matrix" values="0 0 0 0 0 0 0 0 0 0 0 0 0 0 0 0 0 0 127 0" result="hardAlpha"/>
<feOffset dy="4"/>
<feGaussianBlur stdDeviation="2"/>
<feComposite in2="hardAlpha" operator="out"/>
<feColorMatrix type="matrix" values="0 0 0 0 0 0 0 0 0 0 0 0 0 0 0 0 0 0 0.25 0"/>
<feBlend mode="normal" in2="BackgroundImageFix" result="effect1_dropShadow_2275_1575"/>
<feBlend mode="normal" in="SourceGraphic" in2="effect1_dropShadow_2275_1575" result="shape"/>
</filter>
<clipPath id="clip0_2275_1575">
<rect width="30" height="30" fill="white" transform="translate(0.5)"/>
</clipPath>
</defs>
</svg>
